dist/svgs/crypto-icons/icons/bay.svg

<?xml version="1.0" encoding="UTF-8" standalone="yes"?>
<svg xmlns="http://www.w3.org/2000/svg" xmlns:xlink="http://www.w3.org/1999/xlink" width="512px" height="512px" viewBox="0 0 384 384" version="1.1">
  <g id="surface1">
    <path style=" stroke:none;fill-rule:nonzero;fill:rgb(0%,0%,0%);fill-opacity:1;" d="M 236.328125 383.621094 L 25.6875 383.621094 L 25.6875 76.144531 L 101.832031 76.144531 L 101.832031 0 L 251.230469 0 C 283.976562 0 314.976562 15.34375 338.515625 43.199219 C 357.933594 66.195312 369.996094 95.308594 369.996094 119.183594 C 369.996094 149.667969 359.019531 177.058594 350.757812 192.78125 C 356.800781 203.195312 361.609375 214.273438 365.09375 225.796875 C 374.625 257.367188 372.289062 288.132812 358.351562 314.761719 C 344.050781 342.089844 322.765625 361.652344 295.101562 372.914062 C 277.644531 380.019531 257.871094 383.621094 236.328125 383.621094 Z M 65.414062 343.894531 L 236.328125 343.894531 C 277.425781 343.894531 306.636719 327.890625 323.15625 296.339844 C 346.082031 252.539062 312.257812 206.175781 311.90625 205.722656 L 302.0625 193.578125 L 311.589844 181.203125 C 314.472656 177.292969 330.273438 149.117188 330.273438 119.183594 C 330.273438 107.539062 323.351562 86.820312 308.167969 68.84375 C 298.980469 57.96875 279.367188 39.726562 251.234375 39.726562 L 141.5625 39.726562 L 141.5625 76.144531 L 244.605469 76.144531 C 265.652344 76.144531 284.777344 90.597656 291.121094 111.296875 C 296.765625 129.148438 292.074219 148.65625 278.933594 161.992188 C 274.703125 166.21875 257.996094 180.847656 244.605469 192.480469 C 258.777344 205.929688 277.9375 224.15625 282.65625 228.871094 C 298.246094 244.464844 295.257812 272.273438 286.355469 284.574219 C 279.152344 294.527344 266.335938 307.753906 238.363281 307.753906 L 99.492188 307.753906 L 99.492188 134.082031 L 139.21875 134.082031 L 139.21875 268.023438 L 238.359375 268.023438 C 248.46875 268.023438 251.160156 265.347656 253.585938 262.074219 C 254.050781 260.492188 254.132812 257.664062 253.769531 256.179688 C 246.367188 248.894531 216.628906 220.6875 201.363281 206.238281 L 185.390625 191.125 L 202.046875 176.765625 C 218.636719 162.46875 246.546875 138.191406 250.839844 133.898438 C 251.015625 133.722656 255.144531 129.496094 253.132812 122.933594 C 251.710938 118.300781 247.769531 115.875 244.605469 115.875 L 65.414062 115.875 Z M 65.414062 343.894531 "/>
  </g>
</svg>

<svg xmlns="http://www.w3.org/2000/svg" viewBox="0 0 384 384"><path d="M236.328 383.621H25.688V76.145h76.144V0H251.23c32.747 0 63.747 15.344 87.286 43.2 19.418 22.995 31.48 52.109 31.48 75.984 0 30.484-10.976 57.875-19.238 73.597a155.377 155.377 0 0114.336 33.016c9.531 31.57 7.195 62.336-6.742 88.965-14.301 27.328-35.586 46.89-63.25 58.152-17.457 7.106-37.23 10.707-58.774 10.707zM65.414 343.895h170.914c41.098 0 70.309-16.004 86.828-47.555 22.926-43.8-10.898-90.164-11.25-90.617l-9.844-12.145 9.528-12.375c2.883-3.91 18.683-32.086 18.683-62.02 0-11.644-6.921-32.363-22.105-50.34-9.188-10.874-28.8-29.116-56.934-29.116H141.562v36.418h103.043c21.047 0 40.172 14.453 46.516 35.152a50.526 50.526 0 01-12.187 50.695c-4.23 4.227-20.938 18.856-34.329 30.488 14.172 13.45 33.333 31.676 38.051 36.391 15.59 15.594 12.602 43.402 3.7 55.703-7.204 9.953-20.02 23.18-47.993 23.18H99.493V134.082h39.726v133.941h99.14c10.11 0 12.801-2.675 15.227-5.949.465-1.582.547-4.41.184-5.894-7.403-7.285-37.141-35.493-52.407-49.942l-15.972-15.113 16.656-14.36c16.59-14.296 44.5-38.574 48.793-42.867.176-.175 4.305-4.402 2.293-10.964-1.422-4.633-5.363-7.059-8.528-7.059H65.415zm0 0"/></svg>
